X:130
T:Harem Scarem
C:As played by The Old Guard
M:2/4
L:1/8
K:D
P:1st Fife
(3(A/B/c/)|df d/f/d/f/|ce c/e/c/e/|df d/f/d/f/|Bg B/g/B/g/|df d/f/d/f/|ce c/e/c/e/|d/f/d/f/ c/e/c/e/|
dfd::z|dA/A/ FD|FA d2|dd/d/ fa|ge cA|dA/A/ FD|FA d2|d/c/d/e fa|g/e/c/e/ d:|
P:2nd Fife
A|FD FD|EE E2|FD FA|GG G2|FD FD|EE E2|FD EE|DF D::z|
fe df|de f2|FF df|ec Ac|fe df|de f2|FF df|ec d:|
